img/scene_4_bg.svg

<svg width="1282" height="2778" fill="none" xmlns="http://www.w3.org/2000/svg">
  <g clip-path="url(#a)">
    <path d="M1282.38 0h-1284v2778h1284V0Z" fill="#FEE4CE"/>
    <g opacity=".44" fill="#FED2AE">
      <path opacity=".44" d="M4.14 0H-.4v2778h4.54V0ZM22.95 0h-6.27v2778h6.27V0ZM41.74 0h-6.26v2778h6.26V0ZM60.54 0h-6.26v2778h6.26V0ZM79.35 0h-6.27v2778h6.27V0ZM98.14 0h-6.26v2778h6.26V0ZM116.95 0h-6.26v2778h6.26V0ZM135.75 0h-6.27v2778h6.27V0ZM154.54 0h-6.28v2778h6.28V0ZM173.34 0h-6.28v2778h6.28V0ZM192.15 0h-6.29v2778h6.29V0ZM210.92 0h-6.26v2778h6.26V0ZM229.72 0h-6.26v2778h6.26V0ZM248.52 0h-6.27v2778h6.27V0ZM267.32 0h-6.26v2778h6.26V0ZM286.13 0h-6.26v2778h6.26V0ZM304.93 0h-6.27v2778h6.27V0ZM323.72 0h-6.26v2778h6.26V0ZM342.52 0h-6.25v2778h6.25V0ZM361.32 0h-6.29v2778h6.29V0ZM380.12 0h-6.28v2778h6.28V0ZM398.92 0h-6.28v2778h6.28V0ZM417.71 0h-6.28v2778h6.28V0ZM436.5 0h-6.26v2778h6.26V0ZM455.3 0h-6.26v2778h6.26V0ZM474.48 0h-6.27v2778h6.27V0ZM493.28 0h-6.29v2778h6.29V0ZM512.07 0h-6.28v2778h6.28V0ZM530.87 0h-6.27v2778h6.27V0ZM549.66 0h-6.27v2778h6.27V0ZM568.45 0h-6.26v2778h6.26V0ZM587.26 0H581v2778h6.26V0ZM606.06 0h-6.27v2778h6.27V0ZM624.86 0h-6.26v2778h6.26V0ZM643.66 0h-6.26v2778h6.26V0Z"/>
    </g>
    <g opacity=".44" fill="#FED2AE">
      <path opacity=".44" d="M662.56 0h-6.26v2778h6.26V0ZM681.36 0h-6.27v2778h6.27V0ZM700.15 0h-6.26v2778h6.26V0ZM718.95 0h-6.26v2778h6.26V0ZM737.75 0h-6.27v2778h6.27V0ZM756.54 0h-6.28v2778h6.28V0ZM775.35 0h-6.28v2778h6.28V0ZM794.15 0h-6.29v2778h6.29V0ZM812.95 0h-6.28v2778h6.28V0ZM831.73 0h-6.26v2778h6.26V0ZM850.53 0h-6.27v2778h6.27V0ZM869.33 0h-6.26v2778h6.26V0ZM888.13 0h-6.26v2778h6.26V0ZM906.93 0h-6.27v2778h6.27V0ZM925.72 0h-6.26v2778h6.26V0ZM944.53 0h-6.26v2778h6.26V0ZM963.33 0h-6.27v2778h6.27V0ZM982.12 0h-6.28v2778h6.28V0ZM1000.92 0h-6.28v2778h6.28V0ZM1019.73 0h-6.29v2778h6.29V0ZM1038.5 0h-6.26v2778h6.26V0ZM1057.31 0h-6.26v2778h6.26V0ZM1076.11 0h-6.27v2778h6.27V0ZM1094.9 0h-6.26v2778h6.26V0ZM1113.71 0h-6.26v2778h6.26V0ZM1132.51 0h-6.27v2778h6.27V0ZM1151.3 0h-6.26v2778h6.26V0ZM1170.1 0h-6.25v2778h6.25V0ZM1188.91 0h-6.29v2778h6.29V0ZM1207.7 0h-6.28v2778h6.28V0ZM1226.5 0h-6.28v2778h6.28V0ZM1245.3 0h-6.28v2778h6.28V0ZM1264.08 0h-6.26v2778h6.26V0ZM1281.16 0h-4.54v2778h4.54V0Z"/>
    </g>
  </g>
  <defs>
    <clipPath id="a">
      <path fill="#fff" d="M0 0h1282v2778H0z"/>
    </clipPath>
  </defs>
</svg>

<svg width="1282" height="2778" viewBox="0 0 1282 2778" fill="none" xmlns="http://www.w3.org/2000/svg">
<g clip-path="url(#clip0)">
<path d="M1282.38 0H-1.62012V2778H1282.38V0Z" fill="#FEE4CE"/>
<g opacity="0.44">
<path opacity="0.44" d="M4.1401 0H-0.399902V2778H4.1401V0Z" fill="#FED2AE"/>
<path opacity="0.44" d="M22.9502 0H16.6802V2778H22.9502V0Z" fill="#FED2AE"/>
<path opacity="0.44" d="M41.74 0H35.48V2778H41.74V0Z" fill="#FED2AE"/>
<path opacity="0.44" d="M60.5403 0H54.2803V2778H60.5403V0Z" fill="#FED2AE"/>
<path opacity="0.44" d="M79.3501 0H73.0801V2778H79.3501V0Z" fill="#FED2AE"/>
<path opacity="0.44" d="M98.1399 0H91.8799V2778H98.1399V0Z" fill="#FED2AE"/>
<path opacity="0.44" d="M116.95 0H110.69V2778H116.95V0Z" fill="#FED2AE"/>
<path opacity="0.44" d="M135.75 0H129.48V2778H135.75V0Z" fill="#FED2AE"/>
<path opacity="0.44" d="M154.54 0H148.26V2778H154.54V0Z" fill="#FED2AE"/>
<path opacity="0.44" d="M173.34 0H167.06V2778H173.34V0Z" fill="#FED2AE"/>
<path opacity="0.44" d="M192.15 0H185.86V2778H192.15V0Z" fill="#FED2AE"/>
<path opacity="0.44" d="M210.92 0H204.66V2778H210.92V0Z" fill="#FED2AE"/>
<path opacity="0.44" d="M229.72 0H223.46V2778H229.72V0Z" fill="#FED2AE"/>
<path opacity="0.44" d="M248.52 0H242.25V2778H248.52V0Z" fill="#FED2AE"/>
<path opacity="0.44" d="M267.32 0H261.06V2778H267.32V0Z" fill="#FED2AE"/>
<path opacity="0.44" d="M286.13 0H279.87V2778H286.13V0Z" fill="#FED2AE"/>
<path opacity="0.44" d="M304.93 0H298.66V2778H304.93V0Z" fill="#FED2AE"/>
<path opacity="0.44" d="M323.72 0H317.46V2778H323.72V0Z" fill="#FED2AE"/>
<path opacity="0.44" d="M342.52 0H336.27V2778H342.52V0Z" fill="#FED2AE"/>
<path opacity="0.44" d="M361.32 0H355.03V2778H361.32V0Z" fill="#FED2AE"/>
<path opacity="0.44" d="M380.12 0H373.84V2778H380.12V0Z" fill="#FED2AE"/>
<path opacity="0.44" d="M398.92 0H392.64V2778H398.92V0Z" fill="#FED2AE"/>
<path opacity="0.44" d="M417.71 0H411.43V2778H417.71V0Z" fill="#FED2AE"/>
<path opacity="0.44" d="M436.5 0H430.24V2778H436.5V0Z" fill="#FED2AE"/>
<path opacity="0.44" d="M455.3 0H449.04V2778H455.3V0Z" fill="#FED2AE"/>
<path opacity="0.44" d="M474.48 0H468.21V2778H474.48V0Z" fill="#FED2AE"/>
<path opacity="0.44" d="M493.28 0H486.99V2778H493.28V0Z" fill="#FED2AE"/>
<path opacity="0.44" d="M512.07 0H505.79V2778H512.07V0Z" fill="#FED2AE"/>
<path opacity="0.44" d="M530.87 0H524.6V2778H530.87V0Z" fill="#FED2AE"/>
<path opacity="0.44" d="M549.66 0H543.39V2778H549.66V0Z" fill="#FED2AE"/>
<path opacity="0.44" d="M568.45 0H562.19V2778H568.45V0Z" fill="#FED2AE"/>
<path opacity="0.44" d="M587.26 0H581V2778H587.26V0Z" fill="#FED2AE"/>
<path opacity="0.44" d="M606.06 0H599.79V2778H606.06V0Z" fill="#FED2AE"/>
<path opacity="0.44" d="M624.86 0H618.6V2778H624.86V0Z" fill="#FED2AE"/>
<path opacity="0.44" d="M643.66 0H637.4V2778H643.66V0Z" fill="#FED2AE"/>
</g>
<g opacity="0.44">
<path opacity="0.44" d="M662.56 0H656.3V2778H662.56V0Z" fill="#FED2AE"/>
<path opacity="0.44" d="M681.36 0H675.09V2778H681.36V0Z" fill="#FED2AE"/>
<path opacity="0.44" d="M700.15 0H693.89V2778H700.15V0Z" fill="#FED2AE"/>
<path opacity="0.44" d="M718.95 0H712.69V2778H718.95V0Z" fill="#FED2AE"/>
<path opacity="0.44" d="M737.75 0H731.48V2778H737.75V0Z" fill="#FED2AE"/>
<path opacity="0.44" d="M756.54 0H750.26V2778H756.54V0Z" fill="#FED2AE"/>
<path opacity="0.44" d="M775.35 0H769.07V2778H775.35V0Z" fill="#FED2AE"/>
<path opacity="0.44" d="M794.15 0H787.86V2778H794.15V0Z" fill="#FED2AE"/>
<path opacity="0.44" d="M812.95 0H806.67V2778H812.95V0Z" fill="#FED2AE"/>
<path opacity="0.44" d="M831.73 0H825.47V2778H831.73V0Z" fill="#FED2AE"/>
<path opacity="0.44" d="M850.53 0H844.26V2778H850.53V0Z" fill="#FED2AE"/>
<path opacity="0.44" d="M869.33 0H863.07V2778H869.33V0Z" fill="#FED2AE"/>
<path opacity="0.44" d="M888.13 0H881.87V2778H888.13V0Z" fill="#FED2AE"/>
<path opacity="0.44" d="M906.93 0H900.66V2778H906.93V0Z" fill="#FED2AE"/>
<path opacity="0.44" d="M925.72 0H919.46V2778H925.72V0Z" fill="#FED2AE"/>
<path opacity="0.44" d="M944.53 0H938.27V2778H944.53V0Z" fill="#FED2AE"/>
<path opacity="0.44" d="M963.33 0H957.06V2778H963.33V0Z" fill="#FED2AE"/>
<path opacity="0.44" d="M982.12 0H975.84V2778H982.12V0Z" fill="#FED2AE"/>
<path opacity="0.44" d="M1000.92 0H994.64V2778H1000.92V0Z" fill="#FED2AE"/>
<path opacity="0.44" d="M1019.73 0H1013.44V2778H1019.73V0Z" fill="#FED2AE"/>
<path opacity="0.44" d="M1038.5 0H1032.24V2778H1038.5V0Z" fill="#FED2AE"/>
<path opacity="0.44" d="M1057.31 0H1051.05V2778H1057.31V0Z" fill="#FED2AE"/>
<path opacity="0.44" d="M1076.11 0H1069.84V2778H1076.11V0Z" fill="#FED2AE"/>
<path opacity="0.44" d="M1094.9 0H1088.64V2778H1094.9V0Z" fill="#FED2AE"/>
<path opacity="0.44" d="M1113.71 0H1107.45V2778H1113.71V0Z" fill="#FED2AE"/>
<path opacity="0.44" d="M1132.51 0H1126.24V2778H1132.51V0Z" fill="#FED2AE"/>
<path opacity="0.44" d="M1151.3 0H1145.04V2778H1151.3V0Z" fill="#FED2AE"/>
<path opacity="0.44" d="M1170.1 0H1163.85V2778H1170.1V0Z" fill="#FED2AE"/>
<path opacity="0.44" d="M1188.91 0H1182.62V2778H1188.91V0Z" fill="#FED2AE"/>
<path opacity="0.44" d="M1207.7 0H1201.42V2778H1207.7V0Z" fill="#FED2AE"/>
<path opacity="0.44" d="M1226.5 0H1220.22V2778H1226.5V0Z" fill="#FED2AE"/>
<path opacity="0.44" d="M1245.3 0H1239.02V2778H1245.3V0Z" fill="#FED2AE"/>
<path opacity="0.44" d="M1264.08 0H1257.82V2778H1264.08V0Z" fill="#FED2AE"/>
<path opacity="0.44" d="M1281.16 0H1276.62V2778H1281.16V0Z" fill="#FED2AE"/>
</g>
</g>
<defs>
<clipPath id="clip0">
<rect width="1282" height="2778" fill="white"/>
</clipPath>
</defs>
</svg>
